X: 04082
T: RICH'S POLKA
C: Bob McQuillen 4 April 79
B: Bob's Note Book 04 #82
R: polka
Z: 2020 John Chambers <jc:trillian.mit.edu>
M: C
L: 1/8
K: D
|:ABAd fdfd | AFAd f2d2 | ABAB d2f2 | abaf e4 |\
| ABAd fdfd | AFAd f2d2 | afdf gecd | e2d2 d4 :|
|:afdf a2b2 | afdf e2A2 | afdB A2de | f2e2 e4 |\
| fedf e2a2 | fedf e2A2 | d2fd BAag | f2d2 d4 :|
%%begintext align
%% With fondest Best Wishes always
%% to Rich Blasej of Vermont, a
%% fellow enthusiast and _great_
%% clarinet player!
%%endtext

%%sep 1 1 500

%%sep 1 1 500

